X:4
T:Donald Cameron's Polka
R:reel
O:traditional Cape Breton
D:Joe Cormier, The Dances Down Home
Z:Paul Stewart Cranford (P.S.C.), <http://www.cranfordpub.com>
L:1/8
Q:333
M:C|
K:G
dc|B2 BA GBdB|c2 cB ABcd|f2 fe dfaf|gfga gedc|
B2 BA GBdB|c2 cB ABcd|fgfe dcBA|1G2 B2 GB:|2G2 B2 G2||
|:Bd|g2 gf gdBd|c2 cB ABcd|f2 fe dfaf|gfga gdBd|
g2 gf gdBd|c2 cB ABcd|fgfe dcBA|1G2 B2 G2:|2G2 B2 GB|]
